**kern	**kern	**dynam
*part1	*part1	*part1
*staff2	*staff1	*
*I"Piano	*	*
*clefF4	*clefG2	*
*k[b-e-a-]	*k[b-e-a-]	*
=1	=1	=1
8BBB- 8BB-	8B- 8e-] 8g]	.
8r	8r	.
((4F 4A-	([4B- 4d	.
=	=	=
8G))	8B-L]) 8e-	.
8r	8b-	.
8r	8cc	.
8e-> 8g>	8b-J 8cc#X	.
=	=	=
4.d> 4.g>	8bnL 8dd	.
.	(8dd	.
.	8gg)	.
8d>	8gJ 8b	.
=	=	=
([2D 2c	([4f#X 4bn	.
.	8f#L]) 8an	.
.	8enJ	.
=	=	=
*^	*	*
(4Bn)	2D_	(8gL	.
.	.	8dJ)	.
4B-X)	.	4c#X 4en	.
=	=	=	=
(2An	(4.D]	(8dL 8f#X	.
.	.	8bn	.
.	.	8an	.
.	8C)	8enJ)	.
*v	*v	*	*
=	=	=
8BBn) 8Bn	8d 8g	.
8r	8r	p
((4GG 4G	(4B- 4e-X 4b-	.
=	=	=
*-	*-	*-
!!!system-decoration: {(s1,s2)}
!!!RDF**kern: > = above
